svgs/io.svg

<svg width="192" height="192" viewBox="0 0 192 192" fill="none" xmlns="http://www.w3.org/2000/svg">
<circle cx="32.5" cy="47.5" r="10.5" stroke="black" stroke-width="12"/>
<path d="M22 151.241V84.2628C22 78.5948 26.5948 74 32.2628 74C37.9307 74 42.5255 78.5948 42.5255 84.2628V151.241C42.5255 156.909 37.9307 161.504 32.2628 161.504C26.5948 161.504 22 156.909 22 151.241Z" stroke="black" stroke-width="12" stroke-linecap="round" stroke-linejoin="round"/>
<circle cx="118.686" cy="110.321" r="51.3139" stroke="black" stroke-width="12"/>
<path d="M100 103.658V135.038M117.81 85V103.658M117.81 103.658V119.348C117.81 128.013 124.835 135.038 133.5 135.038V135.038M117.81 103.658H133.5" stroke="black" stroke-width="10" stroke-linecap="round" stroke-linejoin="round"/>
<circle cx="83" cy="104" r="3" stroke="black" stroke-width="6"/>
</svg>

<svg width="192" height="192" viewBox="0 0 192 192" fill="none" xmlns="http://www.w3.org/2000/svg"><circle cx="32.5" cy="47.5" r="10.5" stroke="#000" stroke-width="12"/><path d="M22 151.241V84.263C22 78.595 26.595 74 32.263 74s10.263 4.595 10.263 10.263v66.978c0 5.668-4.595 10.263-10.263 10.263S22 156.909 22 151.241Z" stroke="#000" stroke-width="12" stroke-linecap="round" stroke-linejoin="round"/><circle cx="118.686" cy="110.321" r="51.314" stroke="#000" stroke-width="12"/><path d="M100 103.658v31.38M117.81 85v18.658m0 0v15.69c0 8.665 7.025 15.69 15.69 15.69v0m-15.69-31.38h15.69" stroke="#000" stroke-width="10" stroke-linecap="round" stroke-linejoin="round"/><circle cx="83" cy="104" r="3" stroke="#000" stroke-width="6"/></svg>
